X:640
T:Young Bridget
C:O'Carolan
B:O'Neill's 640
Z: 1997 by John Chambers <jc@trillian.mit.edu>
N:"Slow"
M:3/4
L:1/8
K:G
(B/d/e/f/) \
|g2 c'b bag|g4 gf|e2 gfed|e2 ef gf|
|ed dcB ABAG|GF/E/F/G/ A3 G|G6|G7/2 c/ BA|
|G3 A Bc|d3 d gf|e2 gf ed|e4 dcB/A/|
|GA Bc de/f/|g2 gb ag|f2 ~e3 d|d4 de/f/|
|g2 .g.b .a.f|g4 fg|e2 .g.f.e.d|e3 f gf|
|efed cdcB ABAG|GF/E/F/G/ A3 G|G6-|G2|]
